logo.svg

<?xml version="1.0" encoding="iso-8859-1"?>
<!-- Generator: Adobe Illustrator 30.3.0, SVG Export Plug-In . SVG Version: 9.03 Build 0)  -->
<svg version="1.1" id="Layer_1" xmlns="http://www.w3.org/2000/svg" xmlns:xlink="http://www.w3.org/1999/xlink" x="0px" y="0px"
	 viewBox="0 0 500 500" style="enable-background:new 0 0 500 500;" xml:space="preserve">
<path style="fill:#FFFFFF;" d="M167.55,114.46c28.32-20.9,62.42-33.83,97.44-37.17c45.38,0.39,90.77,0.16,136.15,0.18
	c-17.47,18.1-35.22,36.07-53.05,53.75c-26.98,0.64-53.98,0.03-80.96,0.37c-28.22,3.32-55.51,15.69-75.96,35.53
	c-17.41,16.66-29.75,38.94-33.07,62.93c-5.13,35.89,9.75,72.76,35.15,98c-0.72,0.99-1.52,1.92-2.41,2.76
	c-12.55,12.37-24.81,25.03-37.47,37.27c-24.28-24.08-42.48-54.61-50.27-88.03c-6.79-28.44-5.64-58.89,4.38-86.44
	C118.76,161.87,140.56,134.39,167.55,114.46z"/>
<path style="fill:#C1272D;" d="M266,204.5c44.61,0.1,89.23-0.2,133.82,0.15c-0.14,72.64-0.07,145.29-0.04,217.94
	c-11.07-10.03-21.21-21.04-32.1-31.28c-7.29-7.32-14.59-14.63-22-21.81c0.2-36.96-0.06-73.93,0.13-110.89
	c-26.61-0.29-53.22,0.04-79.83-0.17C266.03,240.46,265.98,222.48,266,204.5z"/>
<path style="fill:#C1272D;" d="M217.94,296.55c26.9-7,53.88-13.75,80.85-20.47c-7.06,26.81-13.88,53.68-20.9,80.51
	c-4.45-4.09-8.6-8.49-12.88-12.74c-14.54,13.85-28.59,28.24-42.91,42.34c-2.77-20.22-4.4-40.6-6.92-60.87l-0.02-0.15
	c5.23-5.28,10.7-10.34,15.65-15.88C226.39,305.18,222.23,300.79,217.94,296.55z"/>
<path style="fill:#2E3192;" d="M170.06,370.07c14.96-15,29.94-29.98,45.12-44.75c2.52,20.27,4.15,40.65,6.92,60.87
	c-11.93,12.35-24.43,24.13-36.46,36.38c-21.21-0.11-42.41-0.77-63.63-0.83c-1.1,0.02-2.17-0.16-3.21-0.51
	C135.59,403.88,153.07,387.21,170.06,370.07z"/>
<path style="fill:#2E3192;" d="M217.47,408.45c14.46-14.62,29.13-29.05,43.57-43.69c4.93,0.75,9.93,0.88,14.9,1.19
	c23.01,1.37,46.04,2.37,69.07,3.2l0.67,0.35c7.41,7.18,14.71,14.49,22,21.81c10.89,10.24,21.03,21.25,32.1,31.28l0.32,0.26
	c-42.69-0.23-85.39-0.04-128.08-0.09c-5.04,0.23-10-0.77-14.94-1.58c-13.75-2.39-27.22-6.31-40.19-11.46
	C217.04,409.4,217.32,408.77,217.47,408.45z"/>
</svg>

<?xml version="1.0" encoding="UTF-8" ?>
<!DOCTYPE svg PUBLIC "-//W3C//DTD SVG 1.1//EN" "http://www.w3.org/Graphics/SVG/1.1/DTD/svg11.dtd">
<svg width="500pt" height="500pt" viewBox="0 0 500 500" version="1.1" xmlns="http://www.w3.org/2000/svg">

<path fill="#ffffff" opacity="1.00" d=" M 167.55 114.46 C 195.87 93.56 229.97 80.63 264.99 77.29 C 310.37 77.68 355.76 77.45 401.14 77.47 C 383.67 95.57 365.92 113.54 348.09 131.22 C 321.11 131.86 294.11 131.25 267.13 131.59 C 238.91 134.91 211.62 147.28 191.17 167.12 C 173.76 183.78 161.42 206.06 158.10 230.05 C 152.97 265.94 167.85 302.81 193.25 328.05 C 192.53 329.04 191.73 329.97 190.84 330.81 C 178.29 343.18 166.03 355.84 153.37 368.08 C 129.09 344.00 110.89 313.47 103.10 280.05 C 96.31 251.61 97.46 221.16 107.48 193.61 C 118.76 161.87 140.56 134.39 167.55 114.46 Z" />
<path fill="#c1272d" opacity="1.00" d=" M 266.00 204.50 C 310.61 204.60 355.23 204.30 399.82 204.65 C 399.68 277.29 399.75 349.94 399.78 422.59 C 388.71 412.56 378.57 401.55 367.68 391.31 C 360.39 383.99 353.09 376.68 345.68 369.50 C 345.88 332.54 345.62 295.57 345.81 258.61 C 319.20 258.32 292.59 258.65 265.98 258.44 C 266.03 240.46 265.98 222.48 266.00 204.50 Z" />
<path fill="#c1272d" opacity="1.00" d=" M 217.94 296.55 C 244.84 289.55 271.82 282.80 298.79 276.08 C 291.73 302.89 284.91 329.76 277.89 356.59 C 273.44 352.50 269.29 348.10 265.01 343.85 C 250.47 357.70 236.42 372.09 222.10 386.19 C 219.33 365.97 217.70 345.59 215.18 325.32 L 215.16 325.17 C 220.39 319.89 225.86 314.83 230.81 309.29 C 226.39 305.18 222.23 300.79 217.94 296.55 Z" />
<path fill="#2e3192" opacity="1.00" d=" M 170.06 370.07 C 185.02 355.07 200.00 340.09 215.18 325.32 C 217.70 345.59 219.33 365.97 222.10 386.19 C 210.17 398.54 197.67 410.32 185.64 422.57 C 164.43 422.46 143.23 421.80 122.01 421.74 C 120.91 421.76 119.84 421.58 118.80 421.23 C 135.59 403.88 153.07 387.21 170.06 370.07 Z" />
<path fill="#2e3192" opacity="1.00" d=" M 217.47 408.45 C 231.93 393.83 246.60 379.40 261.04 364.76 C 265.97 365.51 270.97 365.64 275.94 365.95 C 298.95 367.32 321.98 368.32 345.01 369.15 L 345.68 369.50 C 353.09 376.68 360.39 383.99 367.68 391.31 C 378.57 401.55 388.71 412.56 399.78 422.59 L 400.10 422.85 C 357.41 422.62 314.71 422.81 272.02 422.76 C 266.98 422.99 262.02 421.99 257.08 421.18 C 243.33 418.79 229.86 414.87 216.89 409.72 C 217.04 409.40 217.32 408.77 217.47 408.45 Z" />
</svg>
